X: 1
T: Paddy Clancy's
R: jig
M: 6/8
L: 1/8
K: Dmaj
afd edB|dcd AFA|dcd ede|
fef efg|afd edB|dcd AFA|
dcd ede|1 fdd d2f:|2 fdc d2e||
faf gbg|fag fed|fef gfg|
afd e2d|faf gbg|fag fed|
~f3 ede|1 fdc d2e:|2 fdd d2f||


Tune 832	Setting 13990

